X:2140
L:1/8
Q:3/8=120
M:6/8
K:D
 afd ecA | afd ecA | Bcd efg | fed ecA | afd ecA | afd ecA | Agf edc | d3 D3 |:

